X:7133
T:The News of the Victory
O:england
M:6/8
L:1/8
K:G
|:d|d^cd d^cd|g2G G2B|ABc DEF|
GBd d2d|d^cd d^cd|g2G G2B|ABc DEF|
G2B G2:|
|:g|fed d2c|Bcd G2B|ABc DEF|
GBd d2g|fed d2c|Bcd G2B|ABc DEF|
G3G2:|


